!!!OTL: Ewell hu mir onse Paa&szlig; (?), S. 49
!!!id: R0054
**kern
*clefG2
*k[f#]
*G:
{4b
=1
4b
4a
4g
=2
4g
4f#
4e
=3
[2.f#
=4
4f#]}
4r
=5
{4cc
=6
4cc
4b
4a
=7
2g
4a
=8
[2.b
=9
4b]}
4r
=10
{4g
=11
4dd
4b
4b
=12
4b
4b
4dd
=13
[2.cc
=14
4cc]}
4r
=15
{8ee
8ee
=16
4ee
4dd
4cc
=17
4b
4cc
4a
=18
[2.g
=19
4g]}
4r
=20
{4d
=21
2cc
8cc
8cc
=22
4cc
4b
4a
=23
4b
4b}
4r
=24
2r
=25
{8d
8d
=26
2cc
4cc
=27
4cc
4b
4a
=28
4b
4b}
4r
=29
2r
=30
{8g
8g
=31
4ee
4ee
8ee
8ee
=32
4ee
4ee
4ee
=33
[2.dd
=34
4dd]}
2r
=35
{4dd
4r
4b
=36
4dd
4r
4b
=37
8dd
8dd
8cc
8b
4a
=38
2g}
==
*-
!!!minrhy: 8
!!!meters: 3/4 ]  ZZ[8
!!!cut: Ewell hu mir onse Paa&szlig; (?), S. 49
!!!reg: Luxemburg
!!!trd: D'Fraen um Kanddaaf an der aler Zeit, Luxemburg 1929
!!!rhy1: X_  X_X_X_  X_X_X_  X__.  ^_0   (x2)
!!!rhy2: X_  X_X_X_  X__X_  X__.  ^_0
!!!key: R0054  08  G 3/4 ]  ZZ[8
!!!mod: HEPTATONIK IONISCH]  AMBITUS[9
!!!kad: -73413351
!!!akz: 31-7-7_4133_5344_6311_443_443_6655_5551_
!!!fot: 'a__b__c__d__e__ev_f__g__
!!!for: 'a__b__a__av_c__d__e__f__
!!!fok: '\__Vd_/__\__/__/__/__\__
!! PHRAS[VORWIEGEND AUFTAKTIG]
!!!fkt: ??, Walzer
!! RUDEN, J.M.:
!! PR[37] 2K[5] 2G[7] 3K[0] 3G[2] 4A[5] 4Ü[0] 5A[10] 6K[0] 6G[0]
!! 7K[0] 7G[0] 8A[0] MEHR[0] SI[29] ABS[41] SR[12] SP[17]
!! ST[14] 2k[0] 2g[7] 3k[15] 3g[7] 4d[0] 4ü[0] 5d[5] 6k[0] 6g[0]
!! 7k[0] 7g[0] 8d[0] mehr[0] si[34] dm[-5] sr[7] sp[27]
!! 1F[31] 2F[60] 3F[9] 4F[0] LF[0] 2P[0] 3P[0] 4P[0] TRI[0] DF[3] AB[45]
!! TF[0] U3K[0] U3[0] U4[0] U4Ü[0] U5[0] U6K[0] U6[0] U7K[0] U7[0]
!! N1[12] N2K[0] N2[2] N3K[0] N3[10] N4[7] N4Ü[0] N5[43] N6K[0] N6[14]
!!!n7k: 0] N7[2] O1[10] O2K[0] O2[0] O3K[0] O3[0] HÖ[0
!!!RNB: symbol: &szlig; = sz ligature (UTF-8: ÃŸ)
